icon-themes/HighContrast-SVG/scalable/actions/go-first.svg

<?xml version="1.0" encoding="UTF-8" standalone="no"?>
<!-- Generator: Adobe Illustrator 9.0, SVG Export Plug-In  -->
<svg
   xmlns:dc="http://purl.org/dc/elements/1.1/"
   xmlns:cc="http://creativecommons.org/ns#"
   xmlns:rdf="http://www.w3.org/1999/02/22-rdf-syntax-ns#"
   xmlns:svg="http://www.w3.org/2000/svg"
   xmlns="http://www.w3.org/2000/svg"
   xmlns:sodipodi="http://sodipodi.sourceforge.net/DTD/sodipodi-0.dtd"
   xmlns:inkscape="http://www.inkscape.org/namespaces/inkscape"
   width="48pt"
   height="48pt"
   viewBox="0 0 48 48"
   xml:space="preserve"
   id="svg2"
   sodipodi:version="0.32"
   inkscape:version="0.46"
   sodipodi:docname="go-first.svg"
   inkscape:output_extension="org.inkscape.output.svg.inkscape"><metadata
   id="metadata21"><rdf:RDF><cc:Work
       rdf:about=""><dc:format>image/svg+xml</dc:format><dc:type
         rdf:resource="http://purl.org/dc/dcmitype/StillImage" /></cc:Work></rdf:RDF></metadata><defs
   id="defs19" /><sodipodi:namedview
   inkscape:window-height="480"
   inkscape:window-width="640"
   inkscape:pageshadow="2"
   inkscape:pageopacity="0.0"
   guidetolerance="10.0"
   gridtolerance="10.0"
   objecttolerance="10.0"
   borderopacity="1.0"
   bordercolor="#666666"
   pagecolor="#ffffff"
   id="base" />
	<g
   id="Layer_x0020_3"
   style="fill-rule:nonzero;clip-rule:nonzero;fill:#FFFFFF;stroke:#FFFFFF;stroke-width:7.5901;stroke-linejoin:round;stroke-miterlimit:4;">
		<g
   id="g5">
			<path
   d="M28,6.9c0-0.3-0.3-0.3-0.5-0.2L10.8,23.6c-0.5,0.5-0.4,0.7,0,1l16.6,16.6c0.1,0.1,0.4,0.1,0.4-0.1v-10h13.6c0.3,0,0.5-0.2,0.5-0.4l0-13.3c0-0.3-0.2-0.5-0.5-0.5H27.9L28,6.9z"
   id="path7" />
			<path
   d="M10.1,6.8c0.2,0,0.3,0.1,0.3,0.3v33.7c0,0.2-0.1,0.3-0.3,0.3H6.4c-0.2,0-0.3-0.1-0.3-0.3V7.2c0-0.2,0.1-0.3,0.3-0.3h3.8z"
   id="path9" />
			<path
   style="fill:#000000;stroke:none;"
   d="M28,6.9c0-0.3-0.3-0.3-0.5-0.2L10.8,23.6c-0.5,0.5-0.4,0.7,0,1l16.6,16.6c0.1,0.1,0.4,0.1,0.4-0.1v-10h13.6c0.3,0,0.5-0.2,0.5-0.4l0-13.3c0-0.3-0.2-0.5-0.5-0.5H27.9L28,6.9z"
   id="path11" />
			<path
   style="fill:#000000;stroke:none;"
   d="M10.1,6.8c0.2,0,0.3,0.1,0.3,0.3v33.7c0,0.2-0.1,0.3-0.3,0.3H6.4c-0.2,0-0.3-0.1-0.3-0.3V7.2c0-0.2,0.1-0.3,0.3-0.3h3.8z"
   id="path13" />
		</g>
	</g>
	<g
   id="crop_x0020_marks"
   style="fill-rule:nonzero;clip-rule:nonzero;stroke:#000000;stroke-miterlimit:4;">
		<path
   style="fill:none;stroke:none;"
   d="M48,48H0V0h48v48z"
   id="path16" />
	</g>
</svg>

<?xml version="1.0" encoding="UTF-8" standalone="no"?>
<!-- Generator: Adobe Illustrator 9.0, SVG Export Plug-In  -->
<svg
   xmlns:dc="http://purl.org/dc/elements/1.1/"
   xmlns:cc="http://creativecommons.org/ns#"
   xmlns:rdf="http://www.w3.org/1999/02/22-rdf-syntax-ns#"
   xmlns:svg="http://www.w3.org/2000/svg"
   xmlns="http://www.w3.org/2000/svg"
   xmlns:sodipodi="http://sodipodi.sourceforge.net/DTD/sodipodi-0.dtd"
   xmlns:inkscape="http://www.inkscape.org/namespaces/inkscape"
   width="48"
   height="48"
   viewBox="0 0 48 48"
   xml:space="preserve"
   id="svg2"
   sodipodi:version="0.32"
   inkscape:version="0.46"
   sodipodi:docname="go-first.svg"
   inkscape:output_extension="org.inkscape.output.svg.inkscape"
   version="1.0"><metadata
   id="metadata21"><rdf:RDF><cc:Work
       rdf:about=""><dc:format>image/svg+xml</dc:format><dc:type
         rdf:resource="http://purl.org/dc/dcmitype/StillImage" /></cc:Work></rdf:RDF></metadata><defs
   id="defs19" /><sodipodi:namedview
   inkscape:window-height="554"
   inkscape:window-width="1024"
   inkscape:pageshadow="2"
   inkscape:pageopacity="0.0"
   guidetolerance="10.0"
   gridtolerance="10.0"
   objecttolerance="10.0"
   borderopacity="1.0"
   bordercolor="#666666"
   pagecolor="#ffffff"
   id="base"
   showgrid="true"
   inkscape:object-paths="true"
   inkscape:object-nodes="true"
   inkscape:zoom="8.2333333"
   inkscape:cx="31.882591"
   inkscape:cy="30"
   inkscape:window-x="0"
   inkscape:window-y="25"
   inkscape:current-layer="svg2"><inkscape:grid
     type="xygrid"
     id="grid2387"
     visible="true"
     enabled="true" /></sodipodi:namedview>
	<g
   id="Layer_x0020_3"
   style="fill:#ffffff;fill-rule:nonzero;stroke:#ffffff;stroke-width:7.59009981;stroke-linejoin:round;stroke-miterlimit:4">
		<g
   id="g5">
			<path
   d="M 28,6.9 C 28,6.6 27.7,6.6 27.5,6.7 L 10.8,23.6 C 10.3,24.1 10.4,24.3 10.8,24.6 L 27.4,41.2 C 27.5,41.3 27.8,41.3 27.8,41.1 L 27.8,31.1 L 41.4,31.1 C 41.7,31.1 41.9,30.9 41.9,30.7 L 41.9,17.4 C 41.9,17.1 41.7,16.9 41.4,16.9 L 27.9,16.9 L 28,6.9 z"
   id="path7" />
			<path
   d="M 10.1,6.8 C 10.3,6.8 10.4,6.9 10.4,7.1 L 10.4,40.8 C 10.4,41 10.3,41.1 10.1,41.1 L 6.4,41.1 C 6.2,41.1 6.1,41 6.1,40.8 L 6.1,7.2 C 6.1,7 6.2,6.9 6.4,6.9 L 10.2,6.9 L 10.1,6.8 z"
   id="path9" />
			<path
   style="fill:#000000;stroke:none"
   d="M 28,6.9 C 28,6.6 27.7,6.6 27.5,6.7 L 10.8,23.6 C 10.3,24.1 10.4,24.3 10.8,24.6 L 27.4,41.2 C 27.5,41.3 27.8,41.3 27.8,41.1 L 27.8,31.1 L 41.4,31.1 C 41.7,31.1 41.9,30.9 41.9,30.7 L 41.9,17.4 C 41.9,17.1 41.7,16.9 41.4,16.9 L 27.9,16.9 L 28,6.9 z"
   id="path11" />
			<path
   style="fill:#000000;stroke:none"
   d="M 10.1,6.8 C 10.3,6.8 10.4,6.9 10.4,7.1 L 10.4,40.8 C 10.4,41 10.3,41.1 10.1,41.1 L 6.4,41.1 C 6.2,41.1 6.1,41 6.1,40.8 L 6.1,7.2 C 6.1,7 6.2,6.9 6.4,6.9 L 10.2,6.9 L 10.1,6.8 z"
   id="path13" />
		</g>
	</g>
	<g
   id="crop_x0020_marks"
   style="fill-rule:nonzero;stroke:#000000;stroke-miterlimit:4">
		<path
   style="fill:none;stroke:none"
   d="M 48,48 L 0,48 L 0,0 L 48,0 L 48,48 z"
   id="path16" />
	</g>
</svg>
